X: 25062
T: Maids Of Castlebar, The
R: reel
M: 4/4
K: Dmajor
dD~D2 EDB,E|D2FA BAFA|dDcD BDAD|EDFA BAFA|
dD~D2 EDB,E|D2FA BAFA|(3Bcd ec dBAF|1 EDEF DFAc:|2 EDEF D2ag||
|:fgab afde|fd~d2 bdad|efga ge=cd|e=c~c2 acge|
fgaf bfaf|gfeg fdB^c|defd ecdB|1 AFEF D2ag:|2 AFEF D2 (3ABc||
|:dD~D2 EDB,D|D2FA BAFA|dDcD BDAD|EDAD BAFA|
[1 dD~D2 EDB,D|D2FA BAFA|(3Bcd ec dBAF|EDEF D2 (3ABc:|
[2 "also F3D E3F" DEFD EDB,D|D2FA BAFA|(3Bcd ec dBAF|EDEF D2ag||
|:fgab afde|fdad bdad|efga ge=cd|e=cgc acge|
fgaf bfaf|gfeg fdB^c|defd ecdB|1 AFEF D2ag:|2 AFEF D2 (3ABc||
dD~D2 EDCE|D2FA BAFA|dDcD BDAF|DEFD EDB,D|
FD~D2 EDB,E|D2FA BAFA|dgfe dBAG|F2EF D4:|
|:a2ga fd~d2|fdad fddf|gebe geef|gebe gece|
fdad bdad|fgec dBcA|Bcde fdec|dBAG FDD2:|
|:dD~D2 EDB,A,|D2FA BAFA|d2cd BdAF|DEFD EDB,D|
~F3D EDEF|D2FA BAFA|dfec dBAF|GFEG FDD2:|
|:a2^ga fdde|fdad fddf|gebe geef|gebe geeg|
fd~d2 ~g3e|fdec dcBA|Bcde f2ef|dBAG FDD2:|

